assets/passport/mono.svg

<svg viewBox="0 0 24 24" xmlns="http://www.w3.org/2000/svg"><path d="m11.875 0a9.6 9.6 0 0 0 -9.475 9.475h4.8a4.81 4.81 0 0 1 4.675-4.675zm.25 0v4.8a4.81 4.81 0 0 1 4.675 4.675h4.8a9.6 9.6 0 0 0 -9.475-9.475zm-9.725 9.725v14.275h9.6v-4.8h-4.8v-9.476zm9.6 9.474a9.599 9.599 0 0 0 9.6-9.474h-4.8a4.807 4.807 0 0 1 -4.8 4.675z"/></svg>

<svg xmlns="http://www.w3.org/2000/svg" viewBox="0 0 24 24"><path d="M11.875 0A9.6 9.6 0 0 0 2.4 9.475h4.8A4.81 4.81 0 0 1 11.875 4.8zm.25 0v4.8A4.81 4.81 0 0 1 16.8 9.475h4.8A9.6 9.6 0 0 0 12.125 0M2.4 9.725V24H12v-4.8H7.2V9.724zm9.6 9.474a9.6 9.6 0 0 0 9.6-9.474h-4.8A4.807 4.807 0 0 1 12 14.4z"/></svg>
